X:1
T:James Gibb editions
T:Hark, round the God of love - Barnby
%%score [ ( 1 2 ) ( 3 4 ) ]
L:1/8
Q:1/4=84
M:3/4
K:A
V:1 treble nm="Midi_74"
V:2 treble 
V:3 bass nm="Midi_74"
V:4 bass 
V:1
"^Eton Cloisters (65. 65. 66. 65)""^Henry Francis Lyte\n(1793-1847)""^Hark, round the God of love""^Joseph Barnby\n(1838-96)""^Stately" E2 E2 A2 | %1
 c3 B A2 || e2 c2"^1" A2 | A4 G2 || E2 E2 G2 | B3 A G2 || d2 c2 B2 | B4 c2 ||[M:3/4] B2 F2 A2 | %9
 G3 A B2 | c2 G2 B2 | A3 B c2 | e2 B2 d2 |"^1" c3 B A2 ||"^1" B2 F2 G2 | B4 A2 || A6 | A6 |] %18
V:2
 C2 E2 E2 | E3 E E2 || E2 E2 E2 | E4 E2 || B,2 E2 E2 | G3 F E2 || G2 G2 E2 | E4 E2 || %8
[M:3/4] ^D2 D2 F2 | E2 E2 E2 | G2 ^E2 E2 | F2 F2 F2 | E2 G2 B2 | A3 G A2 || F2 F2 E2 | E4 E2 || %16
 F6 | E6 |] %18
V:3
 A,2 A,2 C2 | E3 D C2 || A,2 A,2 A,2 | B,4 B,2 || G,2 B,2 B,2 | E3 B, B,2 || B,2 C2 D2 | D4 C2 || %8
[M:3/4]"^1. Hark, round the God of love\nAngels are singing;\nSaints at His feet above\nTheir crowns are flinging.\nAnd may poor children dare\nHope for acceptance there,\nTheir simple praise and prayer\nTo His throne bringing?\n\n2. Yes, through adoring throngs\nHis pity sees us;\n'Midst their seraphic songs\nOur offring pleases;\nAnd Thou who here didst prove\nTo babes so full of love,\nThou art the same above,\nMerciful Jesus." F,2 B,2 B,2 | %9
 B,2 B,2 B,2 | G,2 C2 C2 | C2 C2 C2 | %12
 B,2"^-""^3. Not a poor sparrow falls\nBut Thou art near it;\nWhen the young raven calls,\nThou, Lord, dost hear it;\nFlowers, worms and insects share\nHourly Thy guardian care:\nWilt Thou bid us despair?\nLord, can we fear it?\n\n4. Lord, then Thy mercy send\nOn all before thee;\nChildren and children's friend\nBless, we implore Thee;\nLead us from grace to grace,\nOn through our earthly race,\nTill all before thy face\nMeet to adore Thee." E2 E2 | %13
"^-" E3 D C2 || B,2 D2"^_" D2 | D4 C2 || D6 |"^-" C6 |] %18
V:4
 A,,2 C,2 E,2 | A,3 A,, A,,2 || C,2 A,,2 C,2 | E,4 E,2 || E,2 G,2 B,2 | E,3 E, E,2 || E,2 E,2 E,2 | %7
 A,4 A,2 ||[M:3/4] F,2 B,,2 ^D,2 | E,2 B,,2 G,2 | ^E,2 C,2 G,2 | F,2 C,2 A,2 | G,2 E,2 G,2 | %13
 A,2"^_" E,2 F,2 || D,2 B,,2 E,2 | A,,4 A,,2 || D,6 | A,,6 |] %18

